svg/u1f5c3.svg

<svg viewBox="0 0 128 128" xmlns="http://www.w3.org/2000/svg">
  <g>
    <polygon points="116.52,45.71 13.11,45.71 18.84,27.47 108.89,27.47 " fill="#37474F"/>
    <path d="M122.87,55.32L112.08,29c-0.59-1.66-2.16-2.77-3.92-2.77h-88.3c-1.76,0-3.33,1.11-3.92,2.77 L5.13,55.32c-0.41,1.21,0.49,2.47,1.77,2.47h114.2C122.38,57.79,123.28,56.53,122.87,55.32z M115.48,53.81H12.52 c-1.31,0-2.23-1.29-1.81-2.53l8.54-19.71c0.42-1.17,1.53-1.95,2.77-1.95h83.98c1.24,0,2.35,0.78,2.77,1.95l8.54,19.71 C117.72,52.52,116.79,53.81,115.48,53.81z" fill="#82AEC0"/>
    <path d="M5,56.11v65.42C5,122.9,6.1,124,7.46,124h113.07c1.36,0,2.47-1.1,2.47-2.47V55.9L5,56.11z" fill="#37474F"/>
    <path d="M106.73,56.1V24.21c0-0.92-0.75-1.67-1.67-1.67v-6.33c0-1.42-1.15-2.57-2.57-2.57H85.15 c-1.42,0-2.57,1.15-2.57,2.57v1.76c0,2.52-2.05,4.57-4.57,4.57H23.72c-1.35,0-2.45,1.1-2.45,2.45v31.1H106.73z" fill="#F3AB47"/>
    <path d="M105.07,22.55l0-6.33c0-1.42-1.15-2.57-2.57-2.57H85.15c-1.42,0-2.57,1.15-2.57,2.57v1.76 c0,1.85-1.27,3.93-4.02,4.57H105.07z" fill="#7CB342"/>
    <rect height="5.21" opacity="0.75" fill="#DE7340" width="85.47" x="21.27" y="27.47"/>
    <path d="M112.36,55.95V32.86c0-1.53-1.24-2.78-2.78-2.78H81.89c-2.86,0-5.17-2.32-5.17-5.17v-1.99 c0-1.61-1.3-2.91-2.91-2.91H54.19c-1.61,0-2.91,1.3-2.91,2.91v1.99c0,2.86-2.32,5.17-5.17,5.17H18.42c-1.53,0-2.78,1.24-2.78,2.78 v23.09H112.36z" fill="#FFCA28"/>
    <path d="M76.72,24.91v-1.99c0-1.61-1.3-2.91-2.91-2.91H54.19c-1.61,0-2.91,1.3-2.91,2.91v1.99 c0,2.86-2.32,5.17-5.17,5.17h35.79C79.04,30.08,76.72,27.76,76.72,24.91z" fill="#0288D1"/>
    <rect height="5.21" fill="#F3AB47" width="99.68" x="12.68" y="38.09"/>
    <path d="M117.4,55.95V43.8c0-1.69-1.37-3.07-3.07-3.07H46.49c-3.15,0-5.71-2.56-5.71-5.71v-2.2 c0-1.77-1.44-3.21-3.21-3.21H15.9c-1.77,0-3.21,1.44-3.21,3.21v7.91c-1.15,0-2.08,0.93-2.08,2.08v13.13H117.4z" fill="#FFE36C"/>
    <path d="M40.78,35.02v-2.2c0-1.77-1.44-3.21-3.21-3.21H15.9c-1.77,0-3.21,1.44-3.21,3.21v7.91h33.81 C43.34,40.73,40.78,38.18,40.78,35.02z" fill="#F44336"/>
    <path d="M117.4,51.27c0.25,2.29-0.61,2.53-1.92,2.53H12.52c-1.31,0-2.21,0.1-1.92-2.31l-3.95,0.13l-1.52,3.7 c-0.41,1.21,0.49,2.47,1.77,2.47h114.2c1.28,0,2.18-1.26,1.77-2.47l-1.75-4.29L117.4,51.27z" fill="#82AEC0"/>
    <rect height="17.4" fill="#FAFAFA" width="33.38" x="46.49" y="82.74"/>
    <path d="M77.01,86.38c0,0-1.35,2.71-1.38,6.27c-0.03,4.07,1.6,7.65,1.6,7.65l-28.13-0.31 c0,0,1.77-2.74,1.87-6.65c0.1-3.7-1.43-6.96-1.43-6.96H77.01z M78.75,82.38H47.97c-1.75,0-3.17,1.42-3.17,3.17v15.58 c0,1.75,1.42,3.17,3.17,3.17h30.78c1.75,0,3.17-1.42,3.17-3.17V85.55C81.91,83.8,80.5,82.38,78.75,82.38L78.75,82.38z" fill="#263238"/>
    <path d="M77.91,84.55c0,0-1.86,2.91-1.86,6.47s1.86,7.44,1.86,7.44H48.8c0,0,1.79-3.61,1.79-6.96 s-1.79-6.96-1.79-6.96H77.91z M78.75,80.55H47.97c-1.75,0-3.17,1.42-3.17,3.17V99.3c0,1.75,1.42,3.17,3.17,3.17h30.78 c1.75,0,3.17-1.42,3.17-3.17V83.72C81.91,81.97,80.5,80.55,78.75,80.55L78.75,80.55z" fill="#9E9E9E"/>
    <line fill="none" stroke="#C9E3E6" stroke-width="2" stroke-linecap="round" stroke-miterlimit="10" x1="47.97" x2="60.15" y1="81.93" y2="81.93"/>
  </g>
</svg>

<svg viewBox="0 0 128 128" xmlns="http://www.w3.org/2000/svg">
  <defs/>
  <path d="M116.52,45.71 L13.11,45.71 L18.84,27.47 L108.89,27.47 Z" fill="#37474F"/>
  <path d="M122.87,55.32 L112.08,29 C111.49,27.34 109.92,26.23 108.16,26.23 L19.86,26.23 C18.1,26.23 16.53,27.34 15.94,29 L5.13,55.32 C4.72,56.53 5.62,57.79 6.9,57.79 L121.1,57.79 C122.38,57.79 123.28,56.53 122.87,55.32 Z M115.48,53.81 L12.52,53.81 C11.21,53.81 10.29,52.52 10.71,51.28 L19.25,31.57 C19.67,30.4 20.78,29.62 22.02,29.62 L106,29.62 C107.24,29.62 108.35,30.4 108.77,31.57 L117.31,51.28 C117.72,52.52 116.79,53.81 115.48,53.81 Z" fill="#82AEC0"/>
  <path d="M5,56.11 L5,121.53 C5,122.9 6.1,124 7.46,124 L120.53,124 C121.89,124 123,122.9 123,121.53 L123,55.9 L5,56.11 Z" fill="#37474F"/>
  <path d="M106.73,56.1 L106.73,24.21 C106.73,23.29 105.98,22.54 105.06,22.54 L105.06,16.21 C105.06,14.79 103.91,13.64 102.49,13.64 L85.15,13.64 C83.73,13.64 82.58,14.79 82.58,16.21 L82.58,17.97 C82.58,20.49 80.53,22.54 78.01,22.54 L23.72,22.54 C22.37,22.54 21.27,23.64 21.27,24.99 L21.27,56.09 L106.73,56.09 Z" fill="#F3AB47"/>
  <path d="M105.07,22.55 L105.07,16.22 C105.07,14.8 103.92,13.65 102.5,13.65 L85.15,13.65 C83.73,13.65 82.58,14.8 82.58,16.22 L82.58,17.98 C82.58,19.83 81.31,21.91 78.56,22.55 L105.07,22.55 Z" fill="#7CB342"/>
  <path d="M21.27,27.47 L106.74,27.47 L106.74,32.68 L21.27,32.68 L21.27,27.47 Z" fill="#DE7340" opacity="0.75"/>
  <path d="M112.36,55.95 L112.36,32.86 C112.36,31.33 111.12,30.08 109.58,30.08 L81.89,30.08 C79.03,30.08 76.72,27.76 76.72,24.91 L76.72,22.92 C76.72,21.31 75.42,20.01 73.81,20.01 L54.19,20.01 C52.58,20.01 51.28,21.31 51.28,22.92 L51.28,24.91 C51.28,27.77 48.96,30.08 46.11,30.08 L18.42,30.08 C16.89,30.08 15.64,31.32 15.64,32.86 L15.64,55.95 L112.36,55.95 Z" fill="#FFCA28"/>
  <path d="M76.72,24.91 L76.72,22.92 C76.72,21.31 75.42,20.01 73.81,20.01 L54.19,20.01 C52.58,20.01 51.28,21.31 51.28,22.92 L51.28,24.91 C51.28,27.77 48.96,30.08 46.11,30.08 L81.9,30.08 C79.04,30.08 76.72,27.76 76.72,24.91 Z" fill="#0288D1"/>
  <path d="M12.68,38.09 L112.36,38.09 L112.36,43.3 L12.68,43.3 L12.68,38.09 Z" fill="#F3AB47"/>
  <path d="M117.4,55.95 L117.4,43.8 C117.4,42.11 116.03,40.73 114.33,40.73 L46.49,40.73 C43.34,40.73 40.78,38.17 40.78,35.02 L40.78,32.82 C40.78,31.05 39.34,29.61 37.57,29.61 L15.9,29.61 C14.13,29.61 12.69,31.05 12.69,32.82 L12.69,40.73 C11.54,40.73 10.61,41.66 10.61,42.81 L10.61,55.94 L117.4,55.94 Z" fill="#FFE36C"/>
  <path d="M40.78,35.02 L40.78,32.82 C40.78,31.05 39.34,29.61 37.57,29.61 L15.9,29.61 C14.13,29.61 12.69,31.05 12.69,32.82 L12.69,40.73 L46.5,40.73 C43.34,40.73 40.78,38.18 40.78,35.02 Z" fill="#F44336"/>
  <path d="M117.4,51.27 C117.65,53.56 116.79,53.8 115.48,53.8 L12.52,53.8 C11.21,53.8 10.31,53.9 10.6,51.49 L6.65,51.62 L5.13,55.32 C4.72,56.53 5.62,57.79 6.9,57.79 L121.1,57.79 C122.38,57.79 123.28,56.53 122.87,55.32 L121.12,51.03 L117.4,51.27 Z" fill="#82AEC0"/>
  <path d="M46.49,82.74 L79.87,82.74 L79.87,100.14 L46.49,100.14 L46.49,82.74 Z" fill="#FAFAFA"/>
  <path d="M77.01,86.38 C77.01,86.38 75.66,89.09 75.63,92.65 C75.6,96.72 77.23,100.3 77.23,100.3 L49.1,99.99 C49.1,99.99 50.87,97.25 50.97,93.34 C51.07,89.64 49.54,86.38 49.54,86.38 L77.01,86.38 Z M78.75,82.38 L47.97,82.38 C46.22,82.38 44.8,83.8 44.8,85.55 L44.8,101.13 C44.8,102.88 46.22,104.3 47.97,104.3 L78.75,104.3 C80.5,104.3 81.92,102.88 81.92,101.13 L81.92,85.55 C81.91,83.8 80.5,82.38 78.75,82.38 L78.75,82.38 Z" fill="#263238"/>
  <path d="M77.91,84.55 C77.91,84.55 76.05,87.46 76.05,91.02 C76.05,94.58 77.91,98.46 77.91,98.46 L48.8,98.46 C48.8,98.46 50.59,94.85 50.59,91.5 C50.59,88.15 48.8,84.54 48.8,84.54 L77.91,84.54 Z M78.75,80.55 L47.97,80.55 C46.22,80.55 44.8,81.97 44.8,83.72 L44.8,99.3 C44.8,101.05 46.22,102.47 47.97,102.47 L78.75,102.47 C80.5,102.47 81.92,101.05 81.92,99.3 L81.92,83.72 C81.91,81.97 80.5,80.55 78.75,80.55 L78.75,80.55 Z" fill="#9E9E9E"/>
  <path d="M47.97,80.93 L60.15,80.93 Q61.15,80.93 61.15,81.93 Q61.15,82.93 60.15,82.93 L47.97,82.93 Q46.97,82.93 46.97,81.93 Q46.97,80.93 47.97,80.93 Z" fill="#C9E3E6"/>
</svg>
